data/pieces/simple/blackKnight.svg

<svg xmlns="http://www.w3.org/2000/svg" width="1000pt" height="1000pt" viewBox="0 0 1000 1000"><path d="M120 641c0-34 17-70 40-113 22-42 42-95 56-156 29-119 62-134 80-140v-87h4l84 67h4l50-90h2l51 107c11-3 23-5 35-5 206 0 324 352 356 668H331c0-78 28-130 53-174 19-34 36-67 36-100v-10l-115 84c-27 33-56 48-79 48-15 0-28-7-35-20-4 1-8 1-12 1-32 0-59-28-59-80" style="stroke-width:2;stroke-linecap:butt;stroke-linejoin:miter;stroke:#fff;stroke-opacity:1;stroke-miterlimit:10;fill-rule:nonzero;fill:#fff;fill-opacity:1"/><path d="M120 641c0-34 17-70 40-113 22-42 42-95 56-156 29-119 62-134 80-140v-87h4l84 67h4l50-90h2l51 107c11-3 23-5 35-5 206 0 324 352 356 668H331c0-78 28-130 53-174 19-34 36-67 36-100v-10l-115 84c-27 33-56 48-79 48-15 0-28-7-35-20-4 1-8 1-12 1-32 0-59-28-59-80m71-16c0 6 5 13 10 13 4 0 9-6 13-11 8-9 8-9 14-11s15-5 15-11c0-7-9-13-15-13-30 0-37 28-37 33m104-189h15c42 0 71-24 71-99 0-12-1-20-1-20-5 3-11 6-17 9-31 15-68 33-68 110m199-160c0 14 13 20 31 20 50 0 122 73 177 191 50 109 85 299 85 363 0 14 10 17 19 17 8 0 24-4 24-12 0-92-40-271-87-378-58-132-143-217-212-217-20 0-37 3-37 16" style="stroke:none;fill-rule:nonzero;fill:#000;fill-opacity:1"/></svg>

<?xml version="1.0" encoding="UTF-8"?>
<!--
    Image is based on original work of Max Froumentin (mf@w3.org) which
    used to be available at:

    http://people.w3.org/maxf/ChessGML/ChessSophia.svg

    These images are under the W3C Software Notice and License, see
    COPYING.html for details.
-->
<svg xmlns="http://www.w3.org/2000/svg" xmlns:xlink="http://www.w3.org/1999/xlink" width="1000pt" height="1000pt" viewBox="0 0 1000 1000" version="1.1">
<g id="surface0">
<path style="stroke-width:2;stroke-linecap:butt;stroke-linejoin:miter;stroke:white;stroke-opacity:1;stroke-miterlimit:10;fill-rule:nonzero;fill:white;fill-opacity:1;" d="M 120 641 C 120 607 137 571 160 528 C 182 486 202 433 216 372 C 245 253 278 238 296 232 L 296 145 L 300 145 L 384 212 L 388 212 L 438 122 L 440 122 L 491 229 C 502 226 514 224 526 224 C 732 224 850 576 882 892 L 331 892 C 331 814 359 762 384 718 C 403 684 420 651 420 618 L 420 608 L 305 692 C 278 725 249 740 226 740 C 211 740 198 733 191 720 C 187 721 183 721 179 721 C 147 721 120 693 120 641"/>
<path style="stroke:none;fill-rule:nonzero;fill:black;fill-opacity:1;" d="M 120 641 C 120 607 137 571 160 528 C 182 486 202 433 216 372 C 245 253 278 238 296 232 L 296 145 L 300 145 L 384 212 L 388 212 L 438 122 L 440 122 L 491 229 C 502 226 514 224 526 224 C 732 224 850 576 882 892 L 331 892 C 331 814 359 762 384 718 C 403 684 420 651 420 618 L 420 608 L 305 692 C 278 725 249 740 226 740 C 211 740 198 733 191 720 C 187 721 183 721 179 721 C 147 721 120 693 120 641 M 191 625 C 191 631 196 638 201 638 C 205 638 210 632 214 627 C 222 618 222 618 228 616 C 234 614 243 611 243 605 C 243 598 234 592 228 592 C 198 592 191 620 191 625 M 295 436 L 310 436 C 352 436 381 412 381 337 C 381 325 380 317 380 317 C 375 320 369 323 363 326 C 332 341 295 359 295 436 M 494 276 C 494 290 507 296 525 296 C 575 296 647 369 702 487 C 752 596 787 786 787 850 C 787 864 797 867 806 867 C 814 867 830 863 830 855 C 830 763 790 584 743 477 C 685 345 600 260 531 260 C 511 260 494 263 494 276"/>
</g>
</svg>
